!!!!SEGMENT: pl-stab--7a--001-003_matuszkiewicz-franciszek--sinphonia-ex-b-rondo.krn
!!!cenid: 18xx:3536
!!!COM: Matuszkiewicz, Franciszek
!!!COM-rismID: pe30109835
!!!CDT: <1790->1810
!!!CNT: Polish
!!!OPR: Sinphonia ex B
!!!OTL: Rondo
!!!OMV: 003
!!!PDT:
!!!AGN:
!!!SMS-siglum: PL-STAb
!!!SMS-shelfmark: 7a
!!!SMS-shelfwork: 001-003 M
!!!SMS-variant:
!!!SMS-altvar:
!!!NIFC-rismSourceID: 301050601
!!!NIFC-rismChildID: 301050601
!!!NIFC-islandoraID: pl-stab:1758
!!!URL-pdf-islandora: https://repozytorium.nifc.pl/islandora/object/pl-stab%3A1758/datastream/PDF/view
!!!URL-scan: https://polish.musicsources.pl/pl/lokalizacje/galeria/rekopisy/4572 @EN{Scan on Polish Music Sources Website} @PL{Skany w portalu Dziedzictwo Muzyki Polskiej w otwartym dostępie}
!!!IIIF:
!!!ONB-nifc: UWAGA: części: 1. Allegro, 2. Andante, 3. Rondo
!!!AIN: 2 clars 2 cor 1 organ 1 viola 2 violn
!!!key: B
**kern	**fba	**kern	**kern	**kern	**dynam	**kern	**kern	**kern	**kern
*	*	*group3	*group3	*group3	*	*group2	*group2	*group1	*group1
*part8	*part8	*part7	*part6	*part5	*part5	*part4	*part3	*part2	*part1
*staff8	*	*staff7	*staff6	*staff5	*	*staff4	*staff3	*staff2	*staff1
*I"Organo.	*	*I"Alto Viola Obligata.	*I"Violino Secundo.	*I"Violino Primo.	*	*I"Corno Secundo in B:	*I"Corno Primo in B:	*I"Clarinetto Secundo.	*I"Clarinetto Primo.
*I'org	*	*I'a-vla	*I'vl 2	*I'vl 1	*	*I'cor 2 in B|b	*I'cor 1 in B|b	*I'cl 2	*I'cl 1
*Iorgan	*	*Iviola	*Ivioln	*Ivioln	*	*Icor	*Icor	*Iclars	*Iclars
*ICklav	*	*ICstr	*ICstr	*ICstr	*	*ICbras	*ICbras	*ICww	*ICww
*>[A,A,B,B,C,C,D,D,E]	*	*>[A,A,B,B,C,C,D,D,E]	*>[A,A,B,B,C,C,D,D,E]	*>[A,A,B,B,C,C,D,D,E]	*>[A,A,B,B,C,C,D,D,E]	*>[A,A,B,B,C,C,D,D,E]	*>[A,A,B,B,C,C,D,D,E]	*>[A,A,B,B,C,C,D,D,E]	*>[A,A,B,B,C,C,D,D,E]
*>A	*	*>A	*>A	*>A	*>A	*>A	*>A	*>A	*>A
*clefF4	*	*clefC3	*clefG2	*clefG2	*	*clefG2	*clefG2	*clefG2	*clefG2
*	*	*	*	*	*	*ITrd1c2	*ITrd1c2	*ITrd1c2	*ITrd1c2
*k[b-e-]	*	*k[b-e-]	*k[b-e-]	*k[b-e-]	*	*k[b-e-]	*k[b-e-]	*k[b-e-]	*k[b-e-]
*B:	*	*B:	*B:	*B:	*	*B:	*B:	*B:	*B:
*M2/4	*	*M2/4	*M2/4	*M2/4	*	*M2/4	*M2/4	*M2/4	*M2/4
=1	=1	=1	=1	=1	=1	=1	=1	=1	=1
*all\right	*	*all\right	*all\right	*all\right	*	*all\right	*all\right	*all\right	*all\right
*	*	*2\right	*	*	*	*	*	*2\right	*2\right
*tremolo	*	*tremolo	*tremolo	*	*	*	*	*	*
!LO:TX:a:i:t=Rondo.	!	!LO:TX:a:i:t=Rondo.	!LO:TX:a:i:t=Rondo.	!LO:TX:a:i:t=Rondo.	!	!LO:TX:a:i:t=Rondo in B&colon;	!LO:TX:a:i:t=Rondo. in B&colon;	!LO:TX:a:i:t=Rondo. in B&colon;	!LO:TX:a:i:t=Rondo. in B&colon;
8BB-/L	.	16d\LL	16f/LL	8b-\	.	8r	8r	[<2dd\	[<2ff\
.	.	16d\	16f/	.	.	.	.	.	.
8BB-/	.	16d\	16f/	4bb-\	.	16d/LL	16b-\LL	.	.
.	.	16d\	16f/	.	.	16d/JJ	16b-\JJ	.	.
8BB-/	.	16d\	16f/	.	.	8d/	8b-\	.	.
.	.	16d\	16f/	.	.	.	.	.	.
8BB-/J	.	16d\	16f/	[<8ff\	.	8r	8r	.	.
.	.	16d\JJ	16f/JJ	.	.	.	.	.	.
=2	=2	=2	=2	=2	=2	=2	=2	=2	=2
8BB-/L	.	16d\LL	16f/LL	8ff\]	.	8r	8r	2dd\]	2ff\]
.	.	16d\	16f/	.	.	.	.	.	.
8BB-/	.	16d\	16f/	4dd\	.	16d/LL	16b-\LL	.	.
.	.	16d\	16f/	.	.	16d/JJ	16b-\JJ	.	.
8BB-/	.	16d\	16f/	.	.	8d/	8b-\	.	.
.	.	16d\	16f/	.	.	.	.	.	.
8BB-/J	.	16d\	16f/	[<8b-\	.	8r	8r	.	.
.	.	16d\JJ	16f/JJ	.	.	.	.	.	.
=3	=3	=3	=3	=3	=3	=3	=3	=3	=3
8BB-/L	6_ 4_	16e-\LL	16g/LL	8b-\]	.	8r	8r	[<2ee-\	[<2gg\
.	.	16e-\	16g/	.	.	.	.	.	.
8BB-/	.	16e-\	16g/	4bb-\	.	16B-/LL	16b-\LL	.	.
.	.	16e-\	16g/	.	.	16B-/JJ	16b-\JJ	.	.
8BB-/	.	16e-\	16g/	.	.	8B-/	8b-\	.	.
.	.	16e-\	16g/	.	.	.	.	.	.
8BB-/J	.	16e-\	16g/	[<8gg\	.	8r	8r	.	.
.	.	16e-\JJ	16g/JJ	.	.	.	.	.	.
=4	=4	=4	=4	=4	=4	=4	=4	=4	=4
8BB-/L	.	16e-\LL	16g/LL	8gg\]	.	8r	8r	2ee-\]	2gg\]
.	.	16e-\	16g/	.	.	.	.	.	.
8BB-/	.	16e-\	16g/	4ee-\	.	16B-/LL	16b-\LL	.	.
.	.	16e-\	16g/	.	.	16B-/JJ	16b-\JJ	.	.
8BB-/	.	16e-\	16g/	.	.	8B-/	8b-\	.	.
.	.	16e-\	16g/	.	.	.	.	.	.
8BB-/J	.	16e-\	16g/	[<8b-\	.	8r	8r	.	.
.	.	16e-\JJ	16g/JJ	.	.	.	.	.	.
=5	=5	=5	=5	=5	=5	=5	=5	=5	=5
8BB-/L	5 3	16d\LL	16f/LL	8b-\]	.	8r	8r	2dd\	2ff\
.	.	16d\	16f/	.	.	.	.	.	.
8BB-/	.	16d\	16f/	4bb-\	.	16d/LL	16b-\LL	.	.
.	.	16d\	16f/	.	.	16d/JJ	16b-\JJ	.	.
8BB-/	.	16d\	16f/	.	.	8d/	8b-\	.	.
.	.	16d\	16f/	.	.	.	.	.	.
8BB-/J	.	16d\	16f/	[<8ff\	.	8r	8r	.	.
.	.	16d\JJ	16f/JJ	.	.	.	.	.	.
=6	=6	=6	=6	=6	=6	=6	=6	=6	=6
8BB-/L	.	16d\LL	16f/LL	8ff\]	.	8r	8r	2b-\	2dd\
.	.	16d\	16f/	.	.	.	.	.	.
8BB-/	.	16d\	16f/	4dd\	.	16d/LL	16b-\LL	.	.
.	.	16d\	16f/	.	.	16d/JJ	16b-\JJ	.	.
8BB-/	.	16d\	16f/	.	.	8d/	8b-\	.	.
.	.	16d\	16f/	.	.	.	.	.	.
8BB-/J	.	16d\	16f/	8b-\	.	8r	8r	.	.
.	.	16d\JJ	16f/JJ	.	.	.	.	.	.
*Xtremolo	*	*Xtremolo	*Xtremolo	*	*	*	*	*	*
=7	=7	=7	=7	=7	=7	=7	=7	=7	=7
4F\	.	4c\	4e-/	(8a\L	.	4f/	4cc\	4a\	4cc\
.	.	.	.	8b-\)	.	.	.	.	.
4F\	6 4	4B-\	4d/	8cc\	.	4b-\	4dd\	4b-\	4dd\
.	.	.	.	8dd\J	.	.	.	.	.
=8	=8	=8	=8	=8	=8	=8	=8	=8	=8
4F\	5 3	4A/	4c/	8cc\L	.	4f/	4cc\	4a\	4cc\
.	.	.	.	8ff\J	.	.	.	.	.
4r	.	4r	4r	(16ff\LL	.	4r	4r	4r	4r
.	.	.	.	16een\)	.	.	.	.	.
.	.	.	.	16ee-X\	.	.	.	.	.
.	.	.	.	16cc\JJ	.	.	.	.	.
=9	=9	=9	=9	=9	=9	=9	=9	=9	=9
*tremolo	*	*tremolo	*tremolo	*	*	*	*	*	*
*2\right	*	*	*	*	*	*	*	*	*
8B-\L	.	16d\LL	16f/LL	8b-\	.	8r	8r	[<2dd\	[<2ff\
.	.	16d\	16f/	.	.	.	.	.	.
8B-\	.	16d\	16f/	4bb-\	.	16d/LL	16b-\LL	.	.
.	.	16d\	16f/	.	.	16d/JJ	16b-\JJ	.	.
8B-\	.	16d\	16f/	.	.	8d/	8b-\	.	.
.	.	16d\	16f/	.	.	.	.	.	.
8B-\J	.	16d\	16f/	[<8ff\	.	8r	8r	.	.
.	.	16d\JJ	16f/JJ	.	.	.	.	.	.
!	!	!	!	!	!	!LO:LB:g=original	!LO:LB:g=original	!	!
=10	=10	=10	=10	=10	=10	=10	=10	=10	=10
8B-\L	.	16d\LL	16f/LL	8ff\]	.	8r	8r	2dd\]	2ff\]
.	.	16d\	16f/	.	.	.	.	.	.
8B-\	.	16d\	16f/	4dd\	.	16d/LL	16b-\LL	.	.
.	.	16d\	16f/	.	.	16d/JJ	16b-\JJ	.	.
8B-\	.	16d\	16f/	.	.	8d/	8b-\	.	.
.	.	16d\	16f/	.	.	.	.	.	.
8B-\J	.	16d\	16f/	[<8b-\	.	8r	8r	.	.
.	.	16d\JJ	16f/JJ	.	.	.	.	.	.
!	!	!	!	!LO:LB:g=original	!	!	!	!	!
=11	=11	=11	=11	=11	=11	=11	=11	=11	=11
!	!	!	!	!LO:TX:t=P:problem=brak zakończenia ligatury	!	!	!	!	!
8B-\L	6_ 4_	16e-\LL	16g/LL	8b-\]	.	8r	8r	[<2ee-\	[<2gg\
.	.	16e-\	16g/	.	.	.	.	.	.
8B-\	.	16e-\	16g/	4bb-\	.	16B-/LL	16b-\LL	.	.
.	.	16e-\	16g/	.	.	16B-/JJ	16b-\JJ	.	.
8B-\	.	16e-\	16g/	.	.	8B-/	8b-\	.	.
.	.	16e-\	16g/	.	.	.	.	.	.
8B-\J	.	16e-\	16g/	[<8gg\	.	8r	8r	.	.
.	.	16e-\JJ	16g/JJ	.	.	.	.	.	.
=12	=12	=12	=12	=12	=12	=12	=12	=12	=12
8B-\L	.	16e-\LL	16g/LL	8gg\]	.	8r	8r	2ee-\]	2gg\]
.	.	16e-\	16g/	.	.	.	.	.	.
8B-\	.	16e-\	16g/	4ee-\	.	16B-/LL	16b-\LL	.	.
.	.	16e-\	16g/	.	.	16B-/JJ	16b-\JJ	.	.
8B-\	.	16e-\	16g/	.	.	8B-/	8b-\	.	.
.	.	16e-\	16g/	.	.	.	.	.	.
8B-\J	.	16e-\	16g/	[<8b-\	.	8r	8r	.	.
.	.	16e-\JJ	16g/JJ	.	.	.	.	.	.
=13	=13	=13	=13	=13	=13	=13	=13	=13	=13
8B-\L	5_ 3_	16d\LL	16f/LL	8b-\]	.	8r	8r	2dd\	2ff\
.	.	16d\	16f/	.	.	.	.	.	.
8B-\	.	16d\	16f/	4bb-\	.	16d/LL	16b-\LL	.	.
.	.	16d\	16f/	.	.	16d/JJ	16b-\JJ	.	.
8B-\	.	16d\	16f/	.	.	8d/	8b-\	.	.
.	.	16d\	16f/	.	.	.	.	.	.
8B-\J	.	16d\	16f/	[<8ff\	.	8r	8r	.	.
.	.	16d\JJ	16f/JJ	.	.	.	.	.	.
=14	=14	=14	=14	=14	=14	=14	=14	=14	=14
8B-\L	.	16B-/LL	16d/LL	8ff\]	.	8r	8r	2b-\	2dd\
.	.	16B-/	16d/	.	.	.	.	.	.
8B-\	.	16B-/	16d/	4dd\	.	16d/LL	16b-\LL	.	.
.	.	16B-/	16d/	.	.	16d/JJ	16b-\JJ	.	.
8B-\	.	16B-/	16d/	.	.	8d/	8b-\	.	.
.	.	16B-/	16d/	.	.	.	.	.	.
8B-\J	.	16B-/	16d/	8b-\	.	8r	8r	.	.
.	X X	16B-/JJ	16d/JJ	.	.	.	.	.	.
*Xtremolo	*	*Xtremolo	*Xtremolo	*	*	*	*	*	*
!LO:LB:g=original	!	!LO:LB:g=original	!	!	!	!	!	!	!
=15	=15	=15	=15	=15	=15	=15	=15	=15	=15
!	!	!	!	!LO:TUP:a:problem=klamra łukowa	!	!	!	!	!
4E-\	.	4c/	4e-/	12cc\L	.	4f/	4cc\	8f/L	8cc\L
.	.	.	.	12dd\	.	.	.	.	.
.	.	.	.	.	.	.	.	8f/	8cc\
.	.	.	.	12ee-\J	.	.	.	.	.
!	!	!	!	!LO:TUP:a:problem=klamra łukowa	!	!	!	!	!
4F\	.	4A/	4c/	12a\L	.	4f/	4cc\	8f/	8cc\
.	.	.	.	12b-\	.	.	.	.	.
.	.	.	.	.	.	.	.	8f/J	8cc\J
.	.	.	.	12cc\J	.	.	.	.	.
!	!	!	!LO:LB:g=original	!	!	!	!	!	!
=16	=16	=16	=16	=16	=16	=16	=16	=16	=16
4B-\	.	4B-/	4d/	4b-\	.	4d/	4b-\	4d/	4b-\
4r	.	4r	4r	4r	.	4r	4r	4r	4r
!	!	!	!	!	!	!	!	!	!LO:LB:g=original
=17:|!|:	=17:|!|:	=17:|!|:	=17:|!|:	=17:|!|:	=17:|!|:	=17:|!|:	=17:|!|:	=17:|!|:	=17:|!|:
*>B	*	*>B	*>B	*>B	*>B	*>B	*>B	*>B	*>B
4F\	.	4f\	8f/L	8f\L	.	4f/	4cc\	[2f/	[<2ff\
.	.	.	8en/	8g\	.	.	.	.	.
4r	.	4r	8f/	8a\	.	4r	4r	.	.
.	.	.	8g/J	8b-\J	.	.	.	.	.
!	!	!	!	!	!	!	!	!LO:LB:g=original	!
=18	=18	=18	=18	=18	=18	=18	=18	=18	=18
4r	.	4r	4.a/	8cc\L	.	4r	4r	2f/_	2ff\]
.	.	.	.	8a\	.	.	.	.	.
4F\	.	4e-\	.	8ee-\	.	4f/	4cc\	.	.
.	.	.	8a/	8cc\J	.	.	.	.	.
=19	=19	=19	=19	=19	=19	=19	=19	=19	=19
4B-\	.	4d\	4b-\	8b-\L	.	4b-\	4dd\	2f/_	[<2ff\
.	.	.	.	8dd\	.	.	.	.	.
4B-\	.	4d\	4dd\	8ff\	.	4b-\	4dd\	.	.
.	.	.	.	8ff\J	.	.	.	.	.
!	!	!	!	!	!	!LO:LB:g=original	!LO:LB:g=original	!	!
=20	=20	=20	=20	=20	=20	=20	=20	=20	=20
4B-\	.	4d\	4b-\	(8ee-\L	.	4b-\	4dd\	2f/_	2ff\]
.	.	.	.	8dd\)	.	.	.	.	.
4r	.	4r	8a/L	8cc\|	.	4r	4r	.	.
.	.	.	8g/J	8b-\J|	.	.	.	.	.
=21	=21	=21	=21	=21	=21	=21	=21	=21	=21
4F\	.	4f\	4f/	8f\L	.	4f/	4cc\	2f/_	2ff\
.	.	.	.	8g\	.	.	.	.	.
4r	.	4r	8f/L	8a\	.	4r	4r	.	.
.	.	.	8g/J	8b-\J	.	.	.	.	.
!	!	!	!	!LO:LB:g=original	!	!	!	!	!
=22	=22	=22	=22	=22	=22	=22	=22	=22	=22
!	!	!	!	!LO:TX:t=P:problem=mixed beam	!	!	!	!	!
4r	.	4r	4a\	8cc\L	.	4r	4r	2f/_	2ff\
.	.	.	.	8f/	.	.	.	.	.
4B-\	.	4f\	(8cc\L	(8ee-\	.	4b-\	4dd\	.	.
.	.	.	8b-\J)	8dd\J)	.	.	.	.	.
=23	=23	=23	=23	=23	=23	=23	=23	=23	=23
!	!	!	!	!LO:TX:t=P:problem=mixed beam	!	!	!	!	!
4F\	.	4f\	4a/	8cc\L	.	4f/	4cc\	2f/_	[<2ff\
.	.	.	.	8f/	.	.	.	.	.
4F\	6 4	4f\	4b-/	(8ee-\	.	4f/	4dd\	.	.
.	.	.	.	8dd\J)	.	.	.	.	.
=24	=24	=24	=24	=24	=24	=24	=24	=24	=24
4F\	.	4f\	4a/	4cc 4f/	.	4f/	4cc\	8f\L]	8ff\L]
.	.	.	.	.	.	.	.	8a\	8cc\
4r	.	4r	4r	4r	.	4r	4r	8b-\	8dd\
.	.	.	.	.	.	.	.	8cc\J	8ee-\J
=25	=25	=25	=25	=25	=25	=25	=25	=25	=25
*tremolo	*	*tremolo	*tremolo	*	*	*	*	*	*
8B-\L	.	16d\LL	16f/LL	8b-\	.	8r	8r	[<2dd\	[<2ff\
.	.	16d\	16f/	.	.	.	.	.	.
8B-\	.	16d\	16f/	4bb-\	.	16d/LL	16b-\LL	.	.
.	.	16d\	16f/	.	.	16d/JJ	16b-\JJ	.	.
8B-\	.	16d\	16f/	.	.	8d/	8b-\	.	.
.	.	16d\	16f/	.	.	.	.	.	.
8B-\J	.	16d\	16f/	[<8ff\	.	8r	8r	.	.
.	.	16d\JJ	16f/JJ	.	.	.	.	.	.
=26	=26	=26	=26	=26	=26	=26	=26	=26	=26
8B-\L	.	16d\LL	16f/LL	8ff\]	.	8r	8r	2dd\]	2ff\]
.	.	16d\	16f/	.	.	.	.	.	.
8B-\	.	16d\	16f/	4dd\	.	16d/LL	16b-\LL	.	.
.	.	16d\	16f/	.	.	16d/JJ	16b-\JJ	.	.
8B-\	.	16d\	16f/	.	.	8d/	8b-\	.	.
.	.	16d\	16f/	.	.	.	.	.	.
8B-\J	.	16d\	16f/	[<8b-\	.	8r	8r	.	.
.	.	16d\JJ	16f/JJ	.	.	.	.	.	.
=27	=27	=27	=27	=27	=27	=27	=27	=27	=27
8B-\L	6_ 4_	16e-\LL	16g/LL	8b-\]	.	8r	8r	[<2ee-\	[<2gg\
.	.	16e-\	16g/	.	.	.	.	.	.
8B-\	.	16e-\	16g/	4bb-\	.	16B-/LL	16b-\LL	.	.
.	.	16e-\	16g/	.	.	16B-/JJ	16b-\JJ	.	.
8B-\	.	16e-\	16g/	.	.	8B-/	8b-\	.	.
.	.	16e-\	16g/	.	.	.	.	.	.
8B-\J	.	16e-\	16g/	[<8gg\	.	8r	8r	.	.
.	.	16e-\JJ	16g/JJ	.	.	.	.	.	.
=28	=28	=28	=28	=28	=28	=28	=28	=28	=28
8B-\L	.	16e-\LL	16g/LL	8gg\]	.	8r	8r	2ee-\]	2gg\]
.	.	16e-\	16g/	.	.	.	.	.	.
8B-\	.	16e-\	16g/	4ee-\	.	16B-/LL	16b-\LL	.	.
.	.	16e-\	16g/	.	.	16B-/JJ	16b-\JJ	.	.
8B-\	.	16e-\	16g/	.	.	8B-/	8b-\	.	.
.	.	16e-\	16g/	.	.	.	.	.	.
8B-\J	.	16e-\	16g/	[<8b-\	.	8r	8r	.	.
.	.	16e-\JJ	16g/JJ	.	.	.	.	.	.
!LO:LB:g=original	!	!LO:LB:g=original	!LO:LB:g=original	!	!	!	!	!	!
=29	=29	=29	=29	=29	=29	=29	=29	=29	=29
8B-\L	5 3	16d\LL	16f/LL	8b-\]	.	8r	8r	2dd\	2ff\
.	.	16d\	16f/	.	.	.	.	.	.
8B-\	.	16d\	16f/	4bb-\	.	16d/LL	16b-\LL	.	.
.	.	16d\	16f/	.	.	16d/JJ	16b-\JJ	.	.
8B-\	.	16d\	16f/	.	.	8d/	8b-\	.	.
.	.	16d\	16f/	.	.	.	.	.	.
8B-\J	.	16d\	16f/	[<8ff\	.	8r	8r	.	.
.	.	16d\JJ	16f/JJ	.	.	.	.	.	.
!	!	!	!	!	!	!LO:LB:g=original	!	!	!
=30-	=30	=30	=30	=30	=30	=30	=30	=30	=30
8B-\L	.	16B-/LL	16d/LL	8ff\]	.	8r	8r	2b-\	2dd\
.	.	16B-/	16d/	.	.	.	.	.	.
8B-\	.	16B-/	16d/	4dd\	.	16d/LL	16b-\LL	.	.
.	.	16B-/	16d/	.	.	16d/JJ	16b-\JJ	.	.
8B-\	.	16B-/	16d/	.	.	8d/	8b-\	.	.
.	.	16B-/	16d/	.	.	.	.	.	.
8B-\J	.	16B-/	16d/	8b-\	.	8r	8r	.	.
.	.	16B-/JJ	16d/JJ	.	.	.	.	.	.
*Xtremolo	*	*Xtremolo	*Xtremolo	*	*	*	*	*	*
!	!	!	!	!	!	!	!LO:LB:g=original	!	!
=31	=31	=31	=31	=31	=31	=31	=31	=31	=31
!	!	!	!	!LO:TUP:a:problem=klamra łukowa	!	!	!	!	!
4E-\	.	4c/	4e-/	12cc\L	.	4f/	4cc\	4cc\	4ee-\
.	.	.	.	12dd\	.	.	.	.	.
.	.	.	.	12ee-\J	.	.	.	.	.
!	!	!	!	!LO:TUP:a:problem=klamra łukowa	!	!	!	!	!
4F\	.	4A/	4c/	12a\L	.	4f/	4cc\	4f/	4cc\
.	.	.	.	12b-\	.	.	.	.	.
.	.	.	.	12cc\J	.	.	.	.	.
=32	=32	=32	=32	=32	=32	=32	=32	=32	=32
4B-\	.	4B-/	4d/	4b-\	.	4d/	4b-\	4d/	4b-\
4r	.	4r	4r	4r	.	4r	4r	4r	4r
=33:|!|:	=33:|!|:	=33:|!|:	=33:|!|:	=33:|!|:	=33:|!|:	=33:|!|:	=33:|!|:	=33:|!|:	=33:|!|:
*>C	*	*>C	*>C	*>C	*>C	*>C	*>C	*>C	*>C
!LO:TX:a:t=4	!	!	!LO:TX:a:t=4	!	!LO:DY:rj	!LO:TX:a:t=16	!LO:TX:a:t=16	!LO:TX:a:t=1	!LO:TX:a:t=Solo
0r	.	0r	0r	8e-/L	p	0r	0r	2r	2ee-\
.	.	.	.	8b-X/	.	.	.	.	.
.	.	.	.	8g/	.	.	.	.	.
.	.	.	.	8b-/J	.	.	.	.	.
!	!	!	!	!LO:LB:g=original	!	!	!	!	!
=34	=34	=34	=34	=34	=34	=34	=34	=34	=34
!	!	!	!	!	!	!	!	!LO:TX:a:rj:t=Solo	!
.	.	.	.	8e-/L	.	.	.	2ee-\	2gg\
.	.	.	.	8b-/	.	.	.	.	.
.	.	.	.	8g/	.	.	.	.	.
.	.	.	.	8b-/J	.	.	.	.	.
!	!	!	!	!	!	!	!	!LO:LB:g=original	!LO:LB:g=original
=35	=35	=35	=35	=35	=35	=35	=35	=35	=35
.	.	.	.	8e-/L	.	.	.	2gg\	2bb-\
.	.	.	.	8b-/	.	.	.	.	.
.	.	.	.	8g/	.	.	.	.	.
.	.	.	.	8b-/J	.	.	.	.	.
=36	=36	=36	=36	=36	=36	=36	=36	=36	=36
.	.	.	.	8f/L	.	.	.	2ff\	2aa-X\
.	.	.	.	8b-/	.	.	.	.	.
.	.	.	.	8a-X/	.	.	.	.	.
.	.	.	.	8b-/J	.	.	.	.	.
=37	=37	=37	=37	=37	=37	=37	=37	=37	=37
4r	.	4r	4r	8g/L	.	0r	0r	4ee-\	(8gg\L
.	.	.	.	8e-/J	.	.	.	.	8ee-\)
*	*	*	*tremolo	*tremolo	*	*	*	*	*
!	!	!	!	!	!LO:DY:rj	!	!	!	!
8D\L	6	8d\L	16ff\LL	16aa-XLL 16b-\	f	.	.	8ff\L	8aa-X\|
.	.	.	16ff\	16aa- 16b-\	.	.	.	.	.
8D\J	.	8d\J	16ff\	16aa- 16b-\	.	.	.	8ff\J	8aa-\J|
.	.	.	16ff\JJ	16aa-JJ 16b-\	.	.	.	.	.
=38	=38	=38	=38	=38	=38	=38	=38	=38	=38
8E-\L	.	8e-\L	16ee-\LL	16ggLL 16b-\	.	.	.	4ee-\	(8gg\L
.	.	.	16ee-\	16gg 16b-\	.	.	.	.	.
8E-\	.	8e-\	16ee-\	16gg 16b-\	.	.	.	.	8ee-\)
.	.	.	16ee-\JJ	16ggJJ 16b-\	.	.	.	.	.
8D\	.	8d\	16dd\LL	16ffLL 16b-\	.	.	.	8ff\L	8aa-X\
.	.	.	16dd\	16ff 16b-\	.	.	.	.	.
8D\J	.	8d\J	16dd\	16ff 16b-\	.	.	.	8ff\J	8aa-\J
.	.	.	16dd\JJ	16ffJJ 16b-\	.	.	.	.	.
=39	=39	=39	=39	=39	=39	=39	=39	=39	=39
*tremolo	*	*tremolo	*	*	*	*	*	*	*
8E-\L	.	8e-\L	16ee-\LL	16ggLL 16b-\	.	.	.	4ee-\	(8gg\L
.	.	.	16ee-\	16gg 16b-\	.	.	.	.	.
8E-\	.	8e-\	16ee-\	16gg 16b-\	.	.	.	.	8ee-\)
.	.	.	16ee-\JJ	16ggJJ 16b-\	.	.	.	.	.
8E-\	.	8e-\	16ee-\LL	16ggLL 16b-\	.	.	.	4ee-\	8aa\
.	.	.	16ee-\	16gg 16b-\	.	.	.	.	.
8E-\J	.	8e-\J	16ee-\	16gg 16b-\	.	.	.	.	8gg\J
.	.	.	16ee-\JJ	16ggJJ 16b-\	.	.	.	.	.
*Xtremolo	*	*Xtremolo	*Xtremolo	*Xtremolo	*	*	*	*	*
=40	=40	=40	=40	=40	=40	=40	=40	=40	=40
4BB-/	.	4B-/	4dd\	4ff 4b-\	.	.	.	8dd\L	4ff\
.	.	.	.	.	.	.	.	8cc\	.
4r	.	4r	4r	8r	.	.	.	8b-\	4r
!	!	!	!	!	!LO:DY:rj:t=p&colon;	!	!	!	!
.	.	.	.	8f/	p	.	.	8a-X\J	.
=41	=41	=41	=41	=41	=41	=41	=41	=41	=41
!LO:TX:a:t=4	!	!LO:TX:a:t=4	!LO:TX:a:t=4	!	!	!	!	!	!
0r	.	0r	0r	8e-/L	.	0r	0r	4g/	2ee-\
.	.	.	.	8b-/	.	.	.	.	.
.	.	.	.	8g/	.	.	.	4r	.
.	.	.	.	8b-/J	.	.	.	.	.
=42	=42	=42	=42	=42	=42	=42	=42	=42	=42
.	.	.	.	8e-/L	.	.	.	2ee-\	2gg\
.	.	.	.	8b-/	.	.	.	.	.
.	.	.	.	8g/	.	.	.	.	.
.	.	.	.	8b-/J	.	.	.	.	.
=43	=43	=43	=43	=43	=43	=43	=43	=43	=43
.	.	.	.	8e-/L	.	.	.	2gg\	2bb-\
.	.	.	.	8b-/	.	.	.	.	.
.	.	.	.	8g/	.	.	.	.	.
.	.	.	.	8b-/J	.	.	.	.	.
!	!	!	!	!LO:LB:g=original	!	!	!	!	!
=44	=44	=44	=44	=44	=44	=44	=44	=44	=44
.	.	.	.	8f/L	.	.	.	2ff\	2aa-X\
.	.	.	.	8b-/	.	.	.	.	.
.	.	.	.	8a-X/	.	.	.	.	.
.	.	.	.	8b-/J	.	.	.	.	.
=45	=45	=45	=45	=45	=45	=45	=45	=45	=45
4r	.	4r	4r	8g/L	.	0r	0r	4ee-\	(8gg\L
.	.	.	.	8e-/J	.	.	.	.	8ee-\)
*	*	*	*tremolo	*tremolo	*	*	*	*	*
!LO:SIC:v:s=8A-\L	!	!	!	!	!LO:DY:rj	!	!	!	!
8A\L	6	8a-X\L	16ff\LL	16aa-XLL 16b-\	f	.	.	8ff\L	8aa-X\|
.	.	.	16ff\	16aa- 16b-\	.	.	.	.	.
!LO:SIC:v:s=8A-\J	!	!	!	!	!	!	!	!	!
8A\J	.	8a-\J	16ff\	16aa- 16b-\	.	.	.	8ff\J	8aa-\J|
.	.	.	16ff\JJ	16aa-JJ 16b-\	.	.	.	.	.
=46	=46	=46	=46	=46	=46	=46	=46	=46	=46
!LO:TX:t=P:problem=mixed beam	!	!LO:TX:t=P:problem=mixed beam	!	!	!	!	!	!	!
8B-\L	6 4	8b-\L	16ee-\LL	16ggLL 16b-\	.	.	.	4ee-\	(8gg\L
.	.	.	16ee-\	16gg 16b-\	.	.	.	.	.
8B-\	.	8b-\	16ee-\	16gg 16b-\	.	.	.	.	8ee-\)
.	.	.	16ee-\JJ	16ggJJ 16b-\	.	.	.	.	.
!	!	!	!	!	!	!	!	!	!LO:SIC:v:s=8aa-
8BB-/	5 3	8B-/	16dd\LL	16ffLL 16b-\	.	.	.	8ff\L	8aa\
.	.	.	16dd\	16ff 16b-\	.	.	.	.	.
!	!	!	!	!	!	!	!	!	!LO:SIC:v:s=8aa-
8BB-/J	.	8B-/J	16dd\	16ff 16b-\	.	.	.	8ff\J	8aa\J
.	.	.	16dd\JJ	16ffJJ 16b-\	.	.	.	.	.
*	*	*	*Xtremolo	*Xtremolo	*	*	*	*	*
=47	=47	=47	=47	=47	=47	=47	=47	=47	=47
4E-\	.	4e-\	4ee-\	(8ee-\L	.	.	.	4ee-\	4gg\
.	.	.	.	8b-\)	.	.	.	.	.
!	!	!	!	!LO:SIC:v:s=(8a-\	!	!	!	!	!
4BB-\	.	4B-\	4f/	(8a\	.	.	.	4b-\	4ff\
.	.	.	.	8b-\J)	.	.	.	.	.
!LO:LB:g=original	!	!LO:LB:g=original	!	!	!	!	!	!	!LO:LB:g=original
=48	=48	=48	=48	=48	=48	=48	=48	=48	=48
4E-\	.	4e-\	4e-/	4g/	.	.	.	4g/	4ee-\
4r	.	4r	4r	4r	.	.	.	4r	4r
!	!	!	!LO:LB:g=original	!	!	!	!	!	!
=49:|!|:	=49:|!|:	=49:|!|:	=49:|!|:	=49:|!|:	=49:|!|:	=49:|!|:	=49:|!|:	=49:|!|:	=49:|!|:
*>D	*	*>D	*>D	*>D	*>D	*>D	*>D	*>D	*>D
!	!	!	!LO:TX:a:t=4	!	!LO:DY:rj:t=p&colon;	!LO:TX:a:t=16	!LO:TX:a:t=16	!	!
0r	.	0r	0r	8f/L	p	0r	0r	1r	2dd\
.	.	.	.	8b-/	.	.	.	.	.
.	.	.	.	8a-X/	.	.	.	.	.
.	.	.	.	8b-/J	.	.	.	.	.
=50	=50	=50	=50	=50	=50	=50	=50	=50	=50
.	.	.	.	8g\L	.	.	.	.	2ee-\
.	.	.	.	8b-\	.	.	.	.	.
.	.	.	.	8ee-\	.	.	.	.	.
.	.	.	.	8b-\J	.	.	.	.	.
!	!	!	!	!	!	!	!	!LO:LB:g=original	!
=51	=51	=51	=51	=51	=51	=51	=51	=51	=51
.	.	.	.	8a-X/L	.	.	.	2dd\	2ff\
.	.	.	.	8g/	.	.	.	.	.
.	.	.	.	8a-/|	.	.	.	.	.
.	.	.	.	8f/J|	.	.	.	.	.
=52	=52	=52	=52	=52	=52	=52	=52	=52	=52
.	.	.	.	(8g/L	.	.	.	2ee-\	2gg\
.	.	.	.	8f/)	.	.	.	.	.
.	.	.	.	8g/	.	.	.	.	.
.	.	.	.	8e-/J	.	.	.	.	.
=53	=53	=53	=53	=53	=53	=53	=53	=53	=53
4r	.	4r	4r	4f/	.	0r	0r	4ff\	4aa-X\
*	*	*	*tremolo	*	*	*	*	*	*
!	!	!	!	!	!LO:DY:rj	!	!	!	!
8G\L	8 6	8g\L	16ee-\LL	16ggLL 16b-\	f	.	.	4ee-\	4gg\
.	.	.	16ee-\	16gg 16b-\	.	.	.	.	.
8G\J	.	8g\J	16ee-\	16gg 16b-\	.	.	.	.	.
.	.	.	16ee-\JJ	16ggJJ 16b-\	.	.	.	.	.
!	!	!	!	!LO:LB:g=original	!	!	!	!	!
=54	=54	=54	=54	=54	=54	=54	=54	=54	=54
*	*	*	*	*tremolo	*	*	*	*	*
!LO:SIC:v:s=8A-\L	!	!	!	!	!	!	!	!	!
8A\L	8 6	8a-X\L	16ff\LL	16aa-XLL 16b-\	.	.	.	4dd\	4ff\
.	.	.	16ff\	16aa- 16b-\	.	.	.	.	.
!LO:SIC:v:s=8A-\	!	!	!	!	!	!	!	!	!
8A\	.	8a-\	16ff\	16aa- 16b-\	.	.	.	.	.
.	.	.	16ff\JJ	16aa-JJ 16b-\	.	.	.	.	.
8An\	7 5	8an\	16ee-\LL	16ggLL 16b-\	.	.	.	4ee-\	4gg\
.	.	.	16ee-\	16gg 16b-\	.	.	.	.	.
8A\J	.	8a\J	16ee-\	16gg 16b-\	.	.	.	.	.
.	.	.	16ee-\JJ	16ggJJ 16b-\	.	.	.	.	.
=55	=55	=55	=55	=55	=55	=55	=55	=55	=55
8B-\L	.	8b-\L	16dd\LL	16ffLL 16b-\	.	.	.	4dd\	4ff\
.	.	.	16dd\	16ff 16b-\	.	.	.	.	.
8B-\	.	8b-\	16dd\	16ff 16b-\	.	.	.	.	.
.	.	.	16dd\JJ	16ffJJ 16b-\	.	.	.	.	.
8B-\	.	8b-\	16dd\LL	16ffLL 16b-\	.	.	.	8dd\L	8ff\L
.	.	.	16dd\	16ff 16b-\	.	.	.	.	.
8B-\J	.	8b-\J	16dd\	16ff 16b-\	.	.	.	8dd\J	8ff\J
.	.	.	16dd\JJ	16ffJJ 16b-\	.	.	.	.	.
*	*	*	*Xtremolo	*Xtremolo	*	*	*	*	*
=56	=56	=56	=56	=56	=56	=56	=56	=56	=56
4B-\	.	4b-\	4dd\	4ff 4b-\	.	.	.	8dd\L	4ff\
.	.	.	.	.	.	.	.	8cc\	.
4r	.	4r	4r	8r	.	.	.	8b-\	4r
.	.	.	.	8f/	.	.	.	8a-X\J	.
=57	=57	=57	=57	=57	=57	=57	=57	=57	=57
!	!	!	!LO:TX:a:t=4	!	!	!	!	!	!
0r	.	0r	0r	8e-/L	.	0r	0r	4g/	2ee-\
.	.	.	.	8b-/	.	.	.	.	.
.	.	.	.	8g/	.	.	.	4r	.
.	.	.	.	8b-/J	.	.	.	.	.
=58	=58	=58	=58	=58	=58	=58	=58	=58	=58
*	*	*	*	*rep	*	*	*	*	*
.	.	.	.	8e-/L	.	.	.	2ee-\	2gg\
.	.	.	.	8b-/	.	.	.	.	.
.	.	.	.	8g/	.	.	.	.	.
.	.	.	.	8b-/J	.	.	.	.	.
*	*	*	*	*Xrep	*	*	*	*	*
=59	=59	=59	=59	=59	=59	=59	=59	=59	=59
*	*	*	*	*rep	*	*	*	*	*
.	.	.	.	8e-/L	.	.	.	2gg\	2bb-\
.	.	.	.	8b-/	.	.	.	.	.
.	.	.	.	8g/	.	.	.	.	.
.	.	.	.	8b-/J	.	.	.	.	.
*	*	*	*	*Xrep	*	*	*	*	*
=60	=60	=60	=60	=60	=60	=60	=60	=60	=60
.	.	.	.	8f/L	.	.	.	2ff\	2aa-X\
.	.	.	.	8b-/	.	.	.	.	.
.	.	.	.	8a-X/	.	.	.	.	.
.	.	.	.	8b-/J	.	.	.	.	.
=61	=61	=61	=61	=61	=61	=61	=61	=61	=61
4r	.	4r	4r	(8g/L	.	0r	0r	4ee-\	(8gg\L
.	.	.	.	8e-/J)	.	.	.	.	8ee-\)
*	*	*	*tremolo	*	*	*	*	*	*
!LO:SIC:v:s=8A-\L	!	!	!	!	!	!	!	!	!
8A\L	6	8a-X\L	16ff\LL	16aa-XLL 16b-\	.	.	.	8ff\L	8aa\
.	.	.	16ff\	16aa- 16b-\	.	.	.	.	.
!LO:SIC:v:s=8A-\J	!	!	!	!	!	!	!	!	!
8A\J	.	8a-\J	16ff\	16aa- 16b-\	.	.	.	8ff\J	8aa\J
.	.	.	16ff\JJ	16aa-JJ 16b-\	.	.	.	.	.
=62	=62	=62	=62	=62	=62	=62	=62	=62	=62
*	*	*	*	*tremolo	*	*	*	*	*
!LO:TX:t=P:problem=mixed beam	!	!LO:TX:t=P:problem=mixed beam	!	!	!	!	!	!	!
8B-\L	6 4	8b-\L	16ee-\LL	16ggLL 16b-\	.	.	.	4ee-\	(8gg\L
.	.	.	16ee-\	16gg 16b-\	.	.	.	.	.
8B-\	.	8b-\	16ee-\	16gg 16b-\	.	.	.	.	8ee-\)
.	.	.	16ee-\JJ	16ggJJ 16b-\	.	.	.	.	.
8BB-/	5 3	8B-/	16dd\LL	16ffLL 16b-\	.	.	.	8ff\L	8aa\
.	.	.	16dd\	16ff 16b-\	.	.	.	.	.
8BB-/J	.	8B-/J	16dd\	16ff 16b-\	.	.	.	8ff\J	8aa\J
.	.	.	16dd\JJ	16ffJJ 16b-\	.	.	.	.	.
*	*	*	*Xtremolo	*Xtremolo	*	*	*	*	*
!	!	!LO:LB:g=original	!	!	!	!	!	!LO:LB:g=original	!LO:LB:g=original
=63	=63	=63	=63	=63	=63	=63	=63	=63	=63
4E-\	.	4e-\	4ee-\	8ee-\L	.	.	.	4ee-\	4gg\
.	.	.	.	8b-\	.	.	.	.	.
4BB-/	.	4B-\	4f/	8a-X\	.	.	.	4b-\	4ff\
.	.	.	.	8b-\J	.	.	.	.	.
=64	=64	=64	=64	=64	=64	=64	=64	=64	=64
!	!	!	!	!LO:TX:b:i:t=volti Subito x	!	!	!	!	!
4E-\	.	4e-\	4e-/	4g/	.	.	.	4g/	4ee-\
4r	.	4r	4r	4r	.	.	.	4r	4r
!LO:LB:g=original	!	!	!	!LO:PB:g=original	!	!	!	!	!
=65:|!	=65:|!	=65:|!	=65:|!	=65:|!	=65:|!	=65:|!	=65:|!	=65:|!	=65:|!
*>E	*	*>E	*>E	*>E	*>E	*>E	*>E	*>E	*>E
*tremolo	*	*tremolo	*tremolo	*	*	*	*	*	*
!	!	!	!	!LO:TX:a:B:t=x	!	!	!	!LO:TX:a:t=Tutti	!
8BB-/L	.	16d\LL	16f/LL	8b-\	.	8r	8r	[<2dd\	[<2ff\
.	.	16d\	16f/	.	.	.	.	.	.
8BB-/	.	16d\	16f/	4bb-\	.	16d/LL	16b-\LL	.	.
.	.	16d\	16f/	.	.	16d/JJ	16b-\JJ	.	.
8BB-/	.	16d\	16f/	.	.	8d/	8b-\	.	.
.	.	16d\	16f/	.	.	.	.	.	.
8BB-/J	.	16d\	16f/	[<8ff\	.	8r	8r	.	.
.	.	16d\JJ	16f/JJ	.	.	.	.	.	.
=66	=66	=66	=66	=66	=66	=66	=66	=66	=66
8BB-/L	.	16d\LL	16f/LL	8ff\]	.	8r	8r	2dd\]	2ff\]
.	.	16d\	16f/	.	.	.	.	.	.
8BB-/	.	16d\	16f/	4dd\	.	16d/LL	16b-\LL	.	.
.	.	16d\	16f/	.	.	16d/JJ	16b-\JJ	.	.
8BB-/	.	16d\	16f/	.	.	8d/	8b-\	.	.
.	.	16d\	16f/	.	.	.	.	.	.
8BB-/J	.	16d\	16f/	[<8b-\	.	8r	8r	.	.
.	.	16d\JJ	16f/JJ	.	.	.	.	.	.
=67	=67	=67	=67	=67	=67	=67	=67	=67	=67
8BB-/L	6_ 4_	16e-\LL	16g/LL	8b-\]	.	8r	8r	[<2ee-\	[<2gg\
.	.	16e-\	16g/	.	.	.	.	.	.
8BB-/	.	16e-\	16g/	4bb-\	.	16B-/LL	16b-\LL	.	.
.	.	16e-\	16g/	.	.	16B-/JJ	16b-\JJ	.	.
8BB-/	.	16e-\	16g/	.	.	8B-/	8b-\	.	.
.	.	16e-\	16g/	.	.	.	.	.	.
8BB-/J	.	16e-\	16g/	[<8gg\	.	8r	8r	.	.
.	.	16e-\JJ	16g/JJ	.	.	.	.	.	.
=68	=68	=68	=68	=68	=68	=68	=68	=68	=68
8BB-/L	.	16e-\LL	16g/LL	8gg\]	.	8r	8r	2ee-\]	2gg\]
.	.	16e-\	16g/	.	.	.	.	.	.
8BB-/	.	16e-\	16g/	4ee-\	.	16B-/LL	16b-\LL	.	.
.	.	16e-\	16g/	.	.	16B-/JJ	16b-\JJ	.	.
8BB-/	.	16e-\	16g/	.	.	8B-/	8b-\	.	.
.	.	16e-\	16g/	.	.	.	.	.	.
8BB-/J	.	16e-\	16g/	[<8b-\	.	8r	8r	.	.
.	X X	16e-\JJ	16g/JJ	.	.	.	.	.	.
=69	=69	=69	=69	=69	=69	=69	=69	=69	=69
8BB-/L	.	16d\LL	16f/LL	8b-\]	.	8r	8r	2dd\	2ff\
.	.	16d\	16f/	.	.	.	.	.	.
8BB-/	.	16d\	16f/	4bb-\	.	16d/LL	16b-\LL	.	.
.	.	16d\	16f/	.	.	16d/JJ	16b-\JJ	.	.
8BB-/	.	16d\	16f/	.	.	8d/	8b-\	.	.
.	.	16d\	16f/	.	.	.	.	.	.
8BB-/J	.	16d\	16f/	[<8ff\	.	8r	8r	.	.
.	.	16d\JJ	16f/JJ	.	.	.	.	.	.
!	!	!	!LO:LB:g=original	!	!	!LO:LB:g=original	!	!	!
=70	=70	=70	=70	=70	=70	=70	=70	=70	=70
8BB-/L	.	16d\LL	16f/LL	8ff\]	.	8r	8r	2b-\	2dd\
.	.	16d\	16f/	.	.	.	.	.	.
8BB-/	.	16d\	16f/	4dd\	.	16d/LL	16b-\LL	.	.
.	.	16d\	16f/	.	.	16d/JJ	16b-\JJ	.	.
8BB-/	.	16d\	16f/	.	.	8d/	8b-\	.	.
.	.	16d\	16f/	.	.	.	.	.	.
8BB-/J	.	16d\	16f/	8b-\	.	8r	8r	.	.
.	.	16d\JJ	16f/JJ	.	.	.	.	.	.
*Xtremolo	*	*Xtremolo	*Xtremolo	*	*	*	*	*	*
!	!	!	!	!	!	!	!LO:LB:g=original	!	!
=71	=71	=71	=71	=71	=71	=71	=71	=71	=71
4F\	.	4c\	4e-/	(8a\L	.	4f/	4cc\	4a\	4cc\
.	.	.	.	8b-\)	.	.	.	.	.
4F\	6 4	4B-\	4d/	8cc\	.	4b-\	4dd\	4b-\	4dd\
.	.	.	.	8dd\J	.	.	.	.	.
=72	=72	=72	=72	=72	=72	=72	=72	=72	=72
4F\	5 3	4A/	4c/	8cc\L	.	4f/	4cc\	4a\	4cc\
.	.	.	.	8ff\J	.	.	.	.	.
4r	.	4r	4r	16ff\LL	.	4r	4r	4r	4r
.	.	.	.	16een\	.	.	.	.	.
.	.	.	.	16ee-X\	.	.	.	.	.
.	.	.	.	16cc\JJ	.	.	.	.	.
=73	=73	=73	=73	=73	=73	=73	=73	=73	=73
*tremolo	*	*tremolo	*tremolo	*	*	*	*	*	*
8B-\L	.	16d\LL	16f/LL	8b-\	.	8r	8r	[<2dd\	[<2ff\
.	.	16d\	16f/	.	.	.	.	.	.
8B-\	.	16d\	16f/	4bb-\	.	16d/LL	16b-\LL	.	.
.	.	16d\	16f/	.	.	16d/JJ	16b-\JJ	.	.
8B-\	.	16d\	16f/	.	.	8d/	8b-\	.	.
.	.	16d\	16f/	.	.	.	.	.	.
8B-\J	.	16d\	16f/	[<8ff\	.	8r	8r	.	.
.	.	16d\JJ	16f/JJ	.	.	.	.	.	.
!	!	!	!	!LO:LB:g=original	!	!	!	!	!
=74	=74	=74	=74	=74	=74	=74	=74	=74	=74
!	!	!	!	!LO:TX:t=P:problem=brak zakończenia ligatury	!	!	!	!	!
8B-\L	.	16d\LL	16f/LL	8ff\]	.	8r	8r	2dd\]	2ff\]
.	.	16d\	16f/	.	.	.	.	.	.
8B-\	.	16d\	16f/	4dd\	.	16d/LL	16b-\LL	.	.
.	.	16d\	16f/	.	.	16d/JJ	16b-\JJ	.	.
8B-\	.	16d\	16f/	.	.	8d/	8b-\	.	.
.	.	16d\	16f/	.	.	.	.	.	.
8B-\J	.	16d\	16f/	[<8b-\	.	8r	8r	.	.
.	.	16d\JJ	16f/JJ	.	.	.	.	.	.
=75	=75	=75	=75	=75	=75	=75	=75	=75	=75
8B-\L	6_ 4_	16e-\LL	16g/LL	8b-\]	.	8r	8r	[<2ee-\	[<2gg\
.	.	16e-\	16g/	.	.	.	.	.	.
8B-\	.	16e-\	16g/	4bb-\	.	16B-/LL	16b-\LL	.	.
.	.	16e-\	16g/	.	.	16B-/JJ	16b-\JJ	.	.
8B-\	.	16e-\	16g/	.	.	8B-/	8b-\	.	.
.	.	16e-\	16g/	.	.	.	.	.	.
8B-\J	.	16e-\	16g/	[<8gg\	.	8r	8r	.	.
.	.	16e-\JJ	16g/JJ	.	.	.	.	.	.
=76	=76	=76	=76	=76	=76	=76	=76	=76	=76
8B-\L	.	16e-\LL	16g/LL	8gg\]	.	8r	8r	2ee-\]	2gg\]
.	.	16e-\	16g/	.	.	.	.	.	.
8B-\	.	16e-\	16g/	4ee-\	.	16B-/LL	16b-\LL	.	.
.	.	16e-\	16g/	.	.	16B-/JJ	16b-\JJ	.	.
8B-\	.	16e-\	16g/	.	.	8B-/	8b-\	.	.
.	.	16e-\	16g/	.	.	.	.	.	.
8B-\J	.	16e-\	16g/	[<8b-\	.	8r	8r	.	.
.	.	16e-\JJ	16g/JJ	.	.	.	.	.	.
=77	=77	=77	=77	=77	=77	=77	=77	=77	=77
8B-\L	5 3	16d\LL	16f/LL	8b-\]	.	8r	8r	2dd\	2ff\
.	.	16d\	16f/	.	.	.	.	.	.
8B-\	.	16d\	16f/	4bb-\	.	16d/LL	16b-\LL	.	.
.	.	16d\	16f/	.	.	16d/JJ	16b-\JJ	.	.
8B-\	.	16d\	16f/	.	.	8d/	8b-\	.	.
.	.	16d\	16f/	.	.	.	.	.	.
8B-\J	.	16d\	16f/	[<8ff\	.	8r	8r	.	.
.	.	16d\JJ	16f/JJ	.	.	.	.	.	.
=78	=78	=78	=78	=78	=78	=78	=78	=78	=78
8B-\L	.	16B-/LL	16d/LL	8ff\]	.	8r	8r	2b-\	2dd\
.	.	16B-/	16d/	.	.	.	.	.	.
8B-\	.	16B-/	16d/	4dd\	.	16d/LL	16b-\LL	.	.
.	.	16B-/	16d/	.	.	16d/JJ	16b-\JJ	.	.
8B-\	.	16B-/	16d/	.	.	8d/	8b-\	.	.
.	.	16B-/	16d/	.	.	.	.	.	.
8B-\J	.	16B-/	16d/	8b-\	.	8r	8r	.	.
.	.	16B-/JJ	16d/JJ	.	.	.	.	.	.
*Xtremolo	*	*Xtremolo	*Xtremolo	*	*	*	*	*	*
!	!	!LO:LB:g=original	!	!	!	!LO:LB:g=original	!	!	!LO:LB:g=original
=79	=79	=79	=79	=79	=79	=79	=79	=79	=79
!	!	!	!	!LO:TUP:a:problem=klamra łukowa	!	!	!	!	!
4E-\	.	4c/	4e-/	12cc\L	.	4f/	4cc\	8f/L	8cc\L
.	.	.	.	12dd\	.	.	.	.	.
.	.	.	.	.	.	.	.	8f/	8cc\
.	.	.	.	12ee-\J	.	.	.	.	.
!	!	!	!	!LO:TUP:a	!	!	!	!	!
4F\	.	4A/	4c/	12a\L	.	4f/	4cc\	8f/	8cc\
.	.	.	.	12b-\	.	.	.	.	.
.	.	.	.	.	.	.	.	8f/J	8cc\J
!	!	!	!LO:TX:t=P:problem=dwa wykreślone takty	!	!	!	!	!	!
.	.	.	.	12cc\J	.	.	.	.	.
!LO:LB:g=original	!	!	!	!	!	!	!	!	!
=80	=80	=80	=80	=80	=80	=80	=80	=80	=80
4B-\	.	4B-/	4d/	4b-\	.	4f/	4b-\	4d/	4b-\
4r	.	4r	4r	4r	.	4r	4r	4r	4r
!	!	!	!	!	!	!	!	!LO:LB:g=original	!
=81	=81	=81	=81	=81	=81	=81	=81	=81	=81
4F\	.	4f\	4f/	8f/L	.	4f/	4cc\	[2f/	[<2ff\
.	.	.	.	8g/	.	.	.	.	.
4r	.	4r	8f/L	8a/	.	4r	4r	.	.
.	.	.	8g/J	8b-/J	.	.	.	.	.
!	!	!	!	!	!	!	!LO:LB:g=original	!	!
=82	=82	=82	=82	=82	=82	=82	=82	=82	=82
4r	.	4r	4.a/	8cc\L	.	4r	4r	2f/]	2ff\]
.	.	.	.	8a\	.	.	.	.	.
4F\	.	4e-\	.	8ee-\	.	4f/	4cc\	.	.
.	.	.	8a/	8cc\J	.	.	.	.	.
!	!	!	!LO:LB:g=original	!	!	!	!	!	!
=83	=83	=83	=83	=83	=83	=83	=83	=83	=83
4B-\	.	4d\	4b-\	8b-\L	.	4b-\	4dd\	[2f/	[<2ff\
.	.	.	.	8dd\	.	.	.	.	.
4B-\	.	4d\	4dd\	8ff\	.	4b-\	4dd\	.	.
.	.	.	.	8ff\J	.	.	.	.	.
!	!	!	!	!LO:LB:g=original	!	!	!	!	!
=84	=84	=84	=84	=84	=84	=84	=84	=84	=84
4B-\	.	4d\	4b-/	(8ee-\L	.	4b-\	4dd\	2f/]	2ff\]
.	.	.	.	8dd\)	.	.	.	.	.
4r	.	4r	8a/L	8cc\	.	4r	4r	.	.
.	.	.	8g/J	8b-\J	.	.	.	.	.
=85	=85	=85	=85	=85	=85	=85	=85	=85	=85
4F\	.	4f\	4f/	8f\L	.	4f/	4cc\	2f/	2ff\
.	.	.	.	8g\	.	.	.	.	.
4r	.	4r	8f/L	8a\	.	4r	4r	.	.
.	.	.	8g/J	8b-\J	.	.	.	.	.
=86	=86	=86	=86	=86	=86	=86	=86	=86	=86
!	!	!	!	!LO:TX:t=P:problem=mixed beam	!	!	!	!	!
4r	.	4r	4a\	8cc\L	.	4r	4r	2f/	2ff\
.	.	.	.	8f/	.	.	.	.	.
4B-\	.	4f\	(8cc\L	(8ee-\	.	4b-\	4dd\	.	.
.	.	.	8b-\J)	8dd\J)	.	.	.	.	.
=87	=87	=87	=87	=87	=87	=87	=87	=87	=87
!	!	!	!	!LO:TX:t=P:problem=mixed beam	!	!	!	!	!
4F\	.	4f\	4a/	8cc\L	.	4f/	4cc\	[2f/	[<2ff\
.	.	.	.	8f/	.	.	.	.	.
4F\	6 4	4f\	4b-/	(8ee-\	.	4f/	4dd\	.	.
.	.	.	.	8dd\J)	.	.	.	.	.
=88	=88	=88	=88	=88	=88	=88	=88	=88	=88
4F\	5 3	4f\	4a/	4cc 4f/	.	4f/	4cc\	8f\L]	8ff\L]
.	.	.	.	.	.	.	.	8a\	8cc\
4r	.	4r	4r	4r	.	4r	4r	8b-\	8dd\
.	.	.	.	.	.	.	.	8cc\J	8ee-\J
=89	=89	=89	=89	=89	=89	=89	=89	=89	=89
*tremolo	*	*tremolo	*tremolo	*	*	*	*	*	*
8B-\L	.	16d\LL	16f/LL	8b-\	.	8r	8r	[<2dd\	[<2ff\
.	.	16d\	16f/	.	.	.	.	.	.
8B-\	.	16d\	16f/	4bb-\	.	16d/LL	16b-\LL	.	.
.	.	16d\	16f/	.	.	16d/JJ	16b-\JJ	.	.
8B-\	.	16d\	16f/	.	.	8d/	8b-\	.	.
.	.	16d\	16f/	.	.	.	.	.	.
8B-\J	.	16d\	16f/	[<8ff\	.	8r	8r	.	.
.	.	16d\JJ	16f/JJ	.	.	.	.	.	.
=90	=90	=90	=90	=90	=90	=90	=90	=90	=90
8B-\L	.	16d\LL	16f/LL	8ff\]	.	8r	8r	2dd\]	2ff\]
.	.	16d\	16f/	.	.	.	.	.	.
8B-\	.	16d\	16f/	4dd\	.	16d/LL	16b-\LL	.	.
.	.	16d\	16f/	.	.	16d/JJ	16b-\JJ	.	.
8B-\	.	16d\	16f/	.	.	8d/	8b-\	.	.
.	.	16d\	16f/	.	.	.	.	.	.
8B-\J	.	16d\	16f/	[<8b-\	.	8r	8r	.	.
.	.	16d\JJ	16f/JJ	.	.	.	.	.	.
=91	=91	=91	=91	=91	=91	=91	=91	=91	=91
8B-\L	6_ 4_	16e-\LL	16g/LL	8b-\]	.	8r	8r	[<2ee-\	[<2gg\
.	.	16e-\	16g/	.	.	.	.	.	.
8B-\	.	16e-\	16g/	4bb-\	.	16B-/LL	16b-\LL	.	.
.	.	16e-\	16g/	.	.	16B-/JJ	16b-\JJ	.	.
8B-\	.	16e-\	16g/	.	.	8B-/	8b-\	.	.
.	.	16e-\	16g/	.	.	.	.	.	.
8B-\J	.	16e-\	16g/	[<8gg\	.	8r	8r	.	.
.	.	16e-\JJ	16g/JJ	.	.	.	.	.	.
!	!	!	!	!	!	!LO:LB:g=original	!	!	!
=92	=92	=92	=92	=92	=92	=92	=92	=92	=92
8B-\L	.	16e-\LL	16g/LL	8gg\]	.	8r	8r	2ee-\]	2gg\]
.	.	16e-\	16g/	.	.	.	.	.	.
8B-\	.	16e-\	16g/	4ee-\	.	16B-/LL	16b-\LL	.	.
.	.	16e-\	16g/	.	.	16B-/JJ	16b-\JJ	.	.
8B-\	.	16e-\	16g/	.	.	8B-/	8b-\	.	.
.	.	16e-\	16g/	.	.	.	.	.	.
8B-\J	.	16e-\	16g/	[<8b-\	.	8r	8r	.	.
.	.	16e-\JJ	16g/JJ	.	.	.	.	.	.
=93	=93	=93	=93	=93	=93	=93	=93	=93	=93
8B-\L	5 3	16d\LL	16f/LL	8b-\]	.	8r	8r	2dd\	2ff\
.	.	16d\	16f/	.	.	.	.	.	.
8B-\	.	16d\	16f/	4bb-\	.	16d/LL	16b-\LL	.	.
.	.	16d\	16f/	.	.	16d/JJ	16b-\JJ	.	.
8B-\	.	16d\	16f/	.	.	8d/	8b-\	.	.
.	.	16d\	16f/	.	.	.	.	.	.
8B-\J	.	16d\	16f/	[<8ff\	.	8r	8r	.	.
.	.	16d\JJ	16f/JJ	.	.	.	.	.	.
!	!	!	!	!	!	!	!LO:LB:g=original	!	!
=94	=94	=94	=94	=94	=94	=94	=94	=94	=94
8B-\L	.	16B-/LL	16d/LL	8ff\]	.	8r	8r	2b-\	2dd\
.	.	16B-/	16d/	.	.	.	.	.	.
8B-\	.	16B-/	16d/	4dd\	.	16d/LL	16b-\LL	.	.
.	.	16B-/	16d/	.	.	16d/JJ	16b-\JJ	.	.
8B-\	.	16B-/	16d/	.	.	8d/	8b-\	.	.
.	.	16B-/	16d/	.	.	.	.	.	.
8B-\J	.	16B-/	16d/	8b-\	.	8r	8r	.	.
.	.	16B-/JJ	16d/JJ	.	.	.	.	.	.
*Xtremolo	*	*Xtremolo	*Xtremolo	*	*	*	*	*	*
!LO:LB:g=original	!	!LO:LB:g=original	!	!LO:LB:g=original	!	!	!	!	!LO:LB:g=original
=95	=95	=95	=95	=95	=95	=95	=95	=95	=95
!	!	!	!	!LO:TUP:a:problem=klamra łukowa	!	!	!	!	!
4E-\	.	4c\	4e-/	12cc\L	.	4f/	4cc\	4cc\	4ee-\
.	.	.	.	12dd\	.	.	.	.	.
.	.	.	.	12ee-\J	.	.	.	.	.
!	!	!	!	!LO:TUP:a:problem=klamra łukowa	!	!	!	!	!
4F\	.	4A/	4c/	12a\L	.	4f/	4cc\	4f/	4cc\
.	.	.	.	12b-\	.	.	.	.	.
.	.	.	.	12cc\J	.	.	.	.	.
!	!	!	!LO:LB:g=original	!	!	!	!	!	!
=96	=96	=96	=96	=96	=96	=96	=96	=96	=96
4B-\	.	4B-/	4d/	4b-\	.	4d/	4b-\	4d/	4b-\
4r	.	4r	4r	4r	.	4r	4r	4r	4r
=97	=97	=97	=97	=97	=97	=97	=97	=97	=97
!	!	!LO:TX:t=P:problem=mixed beam	!	!	!	!LO:TUP:b	!	!	!
4B-\	.	8B-/L	4dd 4f/	4ddd 4b- 4d/	.	12B-/L	4b-\	4dd\	4bb-\
.	.	.	.	.	.	12d/	.	.	.
.	.	8b-\	.	.	.	.	.	.	.
.	.	.	.	.	.	12f/J	.	.	.
4BB-/	.	8f\	4dd 4f/	4ddd 4b- 4d/	.	8b-\L	4dd\	4dd\	4bb-\
.	.	8d\J	.	.	.	8b-\J	.	.	.
=98	=98	=98	=98	=98	=98	=98	=98	=98	=98
4BB-/	.	4B-/	4dd 4f/	4ddd 4b- 4d/	.	4b-\	4dd\	4dd\	4bb-\
4r	.	4r	4r	4r	.	4r	4r	4r	4r
==	==	==	==	==	==	==	==	==	==
*-	*-	*-	*-	*-	*-	*-	*-	*-	*-
!!!system-decoration: [(g1)][(g2)][(g3)]s8
!!!RDF**kern: < = below
!!!RDF**kern: | = vertical stroke
!!!ENC: Anastazja Marusiak
!!!END: 2021-12-18
!!!ENC: Marta Lawrence
!!!END: 2021-12-14
!!!YEC: Copyright 2022 Narodowy Instytut Fryderyka Chopina (https://polishscores.org)
!!!YEM: License CC-BY-4.0 (https://creativecommons.org/licenses/by/4.0)
